X: 37363
T: Slayer In The Kitchen
R: reel
M: 4/4
K: Eminor
|:BEEE BEdE|BEDE GABG|ADFG Aded|f2ed BAFA|
BEEE BEde|BEDE GABe|fafg gfdA|BdAB G/F/EFD:|
|:Ggfg dBGB|ADFG AcBA|Ggfg bgdB|AFGA FEDF|
Egfg eBGE|FBBc BffB|c2ec d2fg|gfdA G/F/EFD:|

